icons/point-line-32.svg

<svg xmlns="http://www.w3.org/2000/svg" viewBox="0 0 32 32"><path d="M23 5h-1V1h1zm-1 13h1v-4h-1zm5-9v1h4V9zm-9 0h-4v1h4zm2-2h5v5h-4.365L5 27.637V30H2v-3h2.365L20 11.364zM4 28H3v1h1zm17-17h3V8h-3z"/><path fill="none" d="M0 0h32v32H0z"/></svg>

<svg id="icons" xmlns="http://www.w3.org/2000/svg" viewBox="0 0 32 32"><defs><style>.cls-1{fill:none;}</style></defs><path d="M23,5H22V1h1ZM22,18h1V14H22Zm5-9v1h4V9ZM18,9H14v1h4Zm2-2h5v5H20.63507L5,27.63666V30H2V27H4.36511L20,11.36365ZM4,28H3v1H4ZM21,11h3V8H21Z"/><rect class="cls-1" width="32" height="32"/></svg>
